packages/core/src/svgs/tokens/mono/DPAY.svg

<svg width="24" height="24" viewBox="0 0 24 24" fill="none" xmlns="http://www.w3.org/2000/svg">
<path d="M16.375 13.25C16.0697 14.4899 15.3604 15.593 14.3588 16.3851C13.3574 17.1771 12.1206 17.6135 10.8438 17.625H3.25V22H10.8438C13.2767 21.9964 15.6251 21.1056 17.4486 19.495C19.2721 17.8843 20.4459 15.664 20.75 13.25H16.375ZM3.25 2H10.8438C13.2767 2.00373 15.6251 2.89437 17.4486 4.50507C19.2721 6.11577 20.4459 8.33605 20.75 10.75H16.375C16.0697 9.5101 15.3604 8.40712 14.3588 7.61495C13.3574 6.8228 12.1206 6.38655 10.8438 6.375H3.25V2ZM3.25 8.87501H7.625V10.75H3.25V8.87501ZM3.25 13.25H7.625V15.125H3.25V13.25Z" fill="white"/>
</svg>

<svg xmlns="http://www.w3.org/2000/svg" width="24" height="24" fill="none" viewBox="0 0 24 24">
    <path fill="#fff" d="M16.375 13.25a5.75 5.75 0 0 1-5.531 4.375H3.25V22h7.594a10 10 0 0 0 9.906-8.75zM3.25 2h7.594a10 10 0 0 1 9.906 8.75h-4.375a5.75 5.75 0 0 0-5.531-4.375H3.25zm0 6.875h4.375v1.875H3.25zm0 4.375h4.375v1.875H3.25z"/>
</svg>
